tellnet/images/map-images/saturday.svg

<svg width="66" height="66" viewBox="0 0 66 66" fill="none" xmlns="http://www.w3.org/2000/svg">
<path d="M32.9696 65.8828C26.0296 65.8764 19.2729 63.6541 13.684 59.5398C8.095 55.4255 3.96572 49.6342 1.89769 43.0094C-0.170332 36.3847 -0.0690608 29.2727 2.18675 22.7096C4.44257 16.1464 8.73506 10.4749 14.4389 6.52147C20.1428 2.56798 26.9599 0.539013 33.8973 0.730137C40.8347 0.921261 47.5298 3.3225 53.0074 7.58402C58.4849 11.8455 62.4586 17.7447 64.3497 24.4221C66.2407 31.0995 65.9502 38.2063 63.5206 44.7072C63.5039 44.7524 63.4784 44.7939 63.4456 44.8293C63.4128 44.8647 63.3733 44.8932 63.3294 44.9133C63.2855 44.9334 63.2381 44.9446 63.1899 44.9463C63.1417 44.948 63.0936 44.9402 63.0484 44.9233C63.0032 44.9064 62.9618 44.8807 62.9266 44.8477C62.8914 44.8148 62.863 44.7752 62.8431 44.7312C62.8232 44.6873 62.8122 44.6398 62.8106 44.5916C62.8091 44.5434 62.8171 44.4953 62.8342 44.4502C65.2175 38.0883 65.5066 31.1315 63.6592 24.5938C61.8118 18.0562 57.9246 12.2795 52.5642 8.10575C47.2039 3.93202 40.6505 1.57948 33.8595 1.39106C27.0684 1.20263 20.3947 3.18817 14.8112 7.05825C9.22758 10.9283 5.02606 16.4806 2.81902 22.9058C0.611981 29.3309 0.514809 36.2931 2.54167 42.7773C4.56853 49.2616 8.61347 54.929 14.0869 58.9534C19.5602 62.9778 26.1759 65.1488 32.9696 65.15C33.0668 65.15 33.16 65.1886 33.2287 65.2573C33.2974 65.326 33.336 65.4192 33.336 65.5164C33.336 65.6136 33.2974 65.7068 33.2287 65.7755C33.16 65.8442 33.0668 65.8828 32.9696 65.8828Z" fill="white"/>
<path d="M33.062 64.4919C26.8998 64.4697 20.8879 62.5867 15.814 59.0896C10.7401 55.5925 6.84082 50.6444 4.62696 44.8935C4.60986 44.8486 4.60178 44.8007 4.60318 44.7526C4.60459 44.7045 4.61546 44.6571 4.63516 44.6132C4.65487 44.5693 4.68303 44.5297 4.71803 44.4967C4.75303 44.4637 4.79419 44.4379 4.83917 44.4208C4.88414 44.4037 4.93204 44.3956 4.98014 44.397C5.02823 44.3984 5.07558 44.4093 5.11948 44.429C5.16337 44.4487 5.20296 44.4769 5.23597 44.5119C5.26898 44.5469 5.29478 44.588 5.31189 44.633C7.23571 49.692 10.506 54.1286 14.7691 57.4633C19.0323 60.7979 24.126 62.9035 29.4993 63.5525C34.8726 64.2014 40.3211 63.3689 45.2556 61.145C50.19 58.9211 54.4225 55.3905 57.4953 50.935C60.5682 46.4795 62.3644 41.2687 62.6898 35.8661C63.0152 30.4635 61.8573 25.0748 59.3414 20.2827C56.8255 15.4906 53.0473 11.4775 48.4155 8.6775C43.7836 5.8775 38.4744 4.39711 33.062 4.39645C32.9648 4.39645 32.8716 4.35785 32.8029 4.28913C32.7342 4.22041 32.6956 4.1272 32.6956 4.03002C32.6956 3.93283 32.7342 3.83963 32.8029 3.7709C32.8716 3.70218 32.9648 3.66358 33.062 3.66358C37.0573 3.66162 41.0139 4.44685 44.7056 5.97443C48.3973 7.50201 51.7519 9.74198 54.5777 12.5664C57.4035 15.3908 59.6451 18.7443 61.1745 22.4353C62.7039 26.1263 63.4911 30.0824 63.4911 34.0777C63.4911 38.073 62.7039 42.0292 61.1745 45.7202C59.6451 49.4111 57.4035 52.7646 54.5777 55.589C51.7519 58.4135 48.3973 60.6534 44.7056 62.181C41.0139 63.7086 37.0573 64.4938 33.062 64.4919V64.4919Z" fill="white"/>
<path d="M46.0676 35.0059V22.7306C46.0676 22.3689 45.924 22.022 45.6682 21.7662C45.4124 21.5104 45.0655 21.3667 44.7037 21.3667H39.248" stroke="white" stroke-miterlimit="10" stroke-linecap="round" stroke-linejoin="round"/>
<path d="M25.6085 21.3667H21.5168C21.155 21.3667 20.8081 21.5104 20.5523 21.7662C20.2965 22.022 20.1528 22.3689 20.1528 22.7306V46.5992C20.1528 46.961 20.2965 47.3079 20.5523 47.5637C20.8081 47.8194 21.155 47.9631 21.5168 47.9631H40.6116" stroke="white" stroke-miterlimit="10" stroke-linecap="round" stroke-linejoin="round"/>
<path d="M36.5199 21.3667H28.3364" stroke="white" stroke-miterlimit="10" stroke-linecap="round" stroke-linejoin="round"/>
<path d="M26.9723 24.7059C26.6106 24.7059 26.2637 24.5622 26.0079 24.3064C25.7521 24.0506 25.6084 23.7037 25.6084 23.342V20.0031C25.6084 19.6413 25.7521 19.2944 26.0079 19.0386C26.2637 18.7829 26.6106 18.6392 26.9723 18.6392C27.3341 18.6392 27.681 18.7829 27.9368 19.0386C28.1925 19.2944 28.3362 19.6413 28.3362 20.0031V23.342C28.3362 23.7037 28.1925 24.0506 27.9368 24.3064C27.681 24.5622 27.3341 24.7059 26.9723 24.7059Z" stroke="white" stroke-miterlimit="10" stroke-linecap="round" stroke-linejoin="round"/>
<path d="M37.8835 24.7059C37.5217 24.7059 37.1748 24.5622 36.919 24.3064C36.6632 24.0506 36.5195 23.7037 36.5195 23.342V20.0031C36.5195 19.6413 36.6632 19.2944 36.919 19.0386C37.1748 18.7829 37.5217 18.6392 37.8835 18.6392C38.2452 18.6392 38.5921 18.7829 38.8479 19.0386C39.1037 19.2944 39.2474 19.6413 39.2474 20.0031V23.342C39.2474 23.7037 39.1037 24.0506 38.8479 24.3064C38.5921 24.5622 38.2452 24.7059 37.8835 24.7059Z" stroke="white" stroke-miterlimit="10" stroke-linecap="round" stroke-linejoin="round"/>
<path d="M41.6352 47.9633C45.5899 47.9633 48.7958 44.7574 48.7958 40.8027C48.7958 36.848 45.5899 33.6421 41.6352 33.6421C37.6805 33.6421 34.4746 36.848 34.4746 40.8027C34.4746 44.7574 37.6805 47.9633 41.6352 47.9633Z" stroke="white" stroke-miterlimit="10" stroke-linecap="round" stroke-linejoin="round"/>
<path d="M41.2935 37.7344V41.1442L44.7033 43.872" stroke="white" stroke-miterlimit="10" stroke-linecap="round" stroke-linejoin="round"/>
<path d="M25.6084 30.2327V27.5049H28.3362" stroke="white" stroke-miterlimit="10" stroke-linecap="round" stroke-linejoin="round"/>
<path d="M31.7461 30.2327V27.5049H34.4739" stroke="white" stroke-miterlimit="10" stroke-linecap="round" stroke-linejoin="round"/>
<path d="M37.8838 30.2327V27.5049H40.6116" stroke="white" stroke-miterlimit="10" stroke-linecap="round" stroke-linejoin="round"/>
<path d="M25.6084 36.3699V33.6421H28.3362" stroke="white" stroke-miterlimit="10" stroke-linecap="round" stroke-linejoin="round"/>
<path d="M31.7461 36.3699V33.6421H34.4739" stroke="white" stroke-miterlimit="10" stroke-linecap="round" stroke-linejoin="round"/>
<path d="M25.6084 43.1898V40.4619H28.3362" stroke="white" stroke-miterlimit="10" stroke-linecap="round" stroke-linejoin="round"/>
<path d="M31.7461 43.1898V40.4619H34.4739" stroke="white" stroke-miterlimit="10" stroke-linecap="round" stroke-linejoin="round"/>
</svg>

<?xml version="1.0" encoding="UTF-8" standalone="no"?>
<svg width="66" xmlns="http://www.w3.org/2000/svg" fill="none" viewBox="0 0 66 66" height="66">
 <path d="m32.97 65.883c-6.94-0.007-13.697-2.229-19.286-6.343s-9.7183-9.906-11.786-16.531c-2.0683-6.624-1.9671-13.736 0.2888-20.299 2.2558-6.564 6.5483-12.235 12.252-16.188 5.704-3.954 12.521-5.983 19.458-5.7919 6.938 0.19116 13.633 2.5924 19.11 6.8539 5.478 4.262 9.452 10.161 11.343 16.838 1.891 6.678 1.6 13.784-0.829 20.285-0.017 0.045-0.043 0.087-0.075 0.122-0.033 0.036-0.073 0.064-0.117 0.084-0.043 0.02-0.091 0.032-0.139 0.033-0.048 0.002-0.096-0.006-0.142-0.023-0.045-0.017-0.086-0.042-0.121-0.075-0.036-0.033-0.064-0.073-0.084-0.117s-0.031-0.091-0.032-0.139c-0.002-0.049 0.006-0.097 0.023-0.142 2.384-6.362 2.673-13.318 0.825-19.856-1.847-6.538-5.734-12.314-11.095-16.488-5.36-4.174-11.914-6.5265-18.704-6.7149-6.792-0.1885-13.465 1.7971-19.049 5.6671-5.5834 3.8698-9.7849 9.4228-11.992 15.848-2.207 6.425-2.3042 13.387-0.2773 19.871 2.0268 6.485 6.0718 12.152 11.545 16.176 5.473 4.025 12.089 6.196 18.883 6.197 0.097 0 0.19 0.039 0.259 0.107 0.068 0.069 0.107 0.162 0.107 0.259 0 0.098-0.039 0.191-0.107 0.26-0.069 0.068-0.162 0.107-0.259 0.107z" fill="#fff"/>
 <path d="m33.062 64.492c-6.162-0.022-12.174-1.905-17.248-5.402-5.074-3.498-8.9732-8.446-11.187-14.196-0.0171-0.045-0.0252-0.093-0.0238-0.141 0.0014-0.049 0.0123-0.096 0.032-0.14s0.0478-0.083 0.0828-0.116 0.0762-0.059 0.1212-0.076c0.0449-0.017 0.0928-0.025 0.1409-0.024s0.0955 0.012 0.1394 0.032 0.0835 0.048 0.1165 0.083 0.0588 0.076 0.0759 0.121c1.9238 5.059 5.1941 9.496 9.4571 12.83 4.263 3.335 9.357 5.441 14.73 6.089 5.374 0.649 10.822-0.183 15.757-2.407 4.934-2.224 9.166-5.755 12.239-10.21s4.869-9.666 5.195-15.069c0.325-5.402-0.833-10.791-3.349-15.583-2.515-4.792-6.294-8.805-10.925-11.606-4.632-2.7995-9.942-4.2799-15.354-4.2806-0.097 0-0.19-0.0386-0.259-0.1073s-0.107-0.1619-0.107-0.2591 0.038-0.1904 0.107-0.2591 0.162-0.1073 0.259-0.1073c3.995-0.002 7.952 0.7832 11.644 2.3108 3.691 1.5276 7.046 3.7676 9.872 6.5916 2.826 2.825 5.067 6.178 6.596 9.869 1.53 3.691 2.317 7.647 2.317 11.643 0 3.995-0.787 7.951-2.317 11.642-1.529 3.691-3.77 7.045-6.596 9.869-2.826 2.825-6.181 5.064-9.872 6.592-3.692 1.528-7.649 2.313-11.644 2.311z" fill="#fff"/>
 <path stroke-linejoin="round" stroke="#fff" stroke-linecap="round" stroke-miterlimit="10" d="m46.068 35.006v-12.275c0-0.362-0.144-0.709-0.4-0.965s-0.602-0.399-0.964-0.399h-5.456"/>
 <path stroke-linejoin="round" stroke="#fff" stroke-linecap="round" stroke-miterlimit="10" d="m25.608 21.367h-4.091c-0.362 0-0.709 0.143-0.965 0.399s-0.399 0.603-0.399 0.965v23.868c0 0.362 0.143 0.709 0.399 0.965 0.256 0.255 0.603 0.399 0.965 0.399h19.095"/>
 <path stroke-linejoin="round" stroke="#fff" stroke-linecap="round" stroke-miterlimit="10" d="m36.52 21.367h-8.184"/>
 <path stroke-linejoin="round" stroke="#fff" stroke-linecap="round" stroke-miterlimit="10" d="m26.972 24.706c-0.361 0-0.708-0.144-0.964-0.4-0.256-0.255-0.4-0.602-0.4-0.964v-3.339c0-0.362 0.144-0.709 0.4-0.964 0.256-0.256 0.603-0.4 0.964-0.4 0.362 0 0.709 0.144 0.965 0.4 0.255 0.255 0.399 0.602 0.399 0.964v3.339c0 0.362-0.144 0.709-0.399 0.964-0.256 0.256-0.603 0.4-0.965 0.4z"/>
 <path stroke-linejoin="round" stroke="#fff" stroke-linecap="round" stroke-miterlimit="10" d="m37.884 24.706c-0.362 0-0.709-0.144-0.965-0.4-0.256-0.255-0.399-0.602-0.399-0.964v-3.339c0-0.362 0.143-0.709 0.399-0.964 0.256-0.256 0.603-0.4 0.965-0.4 0.361 0 0.708 0.144 0.964 0.4 0.256 0.255 0.399 0.602 0.399 0.964v3.339c0 0.362-0.143 0.709-0.399 0.964-0.256 0.256-0.603 0.4-0.964 0.4z"/>
 <path stroke-linejoin="round" stroke="#fff" stroke-linecap="round" stroke-miterlimit="10" d="m41.635 47.963c3.955 0 7.161-3.206 7.161-7.16 0-3.955-3.206-7.161-7.161-7.161s-7.16 3.206-7.16 7.161c0 3.954 3.205 7.16 7.16 7.16z"/>
 <path stroke-linejoin="round" stroke="#fff" stroke-linecap="round" stroke-miterlimit="10" d="m41.294 37.734v3.41l3.409 2.728"/>
 <path stroke-linejoin="round" stroke="#fff" stroke-linecap="round" stroke-miterlimit="10" d="m25.608 30.233v-2.728h2.728"/>
 <path stroke-linejoin="round" stroke="#fff" stroke-linecap="round" stroke-miterlimit="10" d="m31.746 30.233v-2.728h2.728"/>
 <path stroke-linejoin="round" stroke="#fff" stroke-linecap="round" stroke-miterlimit="10" d="m37.884 30.233v-2.728h2.728"/>
 <path stroke-linejoin="round" stroke="#fff" stroke-linecap="round" stroke-miterlimit="10" d="m25.608 36.37v-2.728h2.728"/>
 <path stroke-linejoin="round" stroke="#fff" stroke-linecap="round" stroke-miterlimit="10" d="m31.746 36.37v-2.728h2.728"/>
 <path stroke-linejoin="round" stroke="#fff" stroke-linecap="round" stroke-miterlimit="10" d="m25.608 43.19v-2.728h2.728"/>
 <path stroke-linejoin="round" stroke="#fff" stroke-linecap="round" stroke-miterlimit="10" d="m31.746 43.19v-2.728h2.728"/>
</svg>
